X:1
T: The Duchess of Bedford's Reel
T: The Dutchess of Bedford's Reel
C:R. Mackintosh
R:Jig
Q: 180
K:Cm
M:6/8
L:1/8
c1/4d1/4e1/4f1/4|g2e c2G|E2C G2E|DFB FBd|Bdf bfd|
g2e c2G|E2C G2E|FGA Gc=B|c2c c2:|
|:c1/2d1/2|edc gec|edc gfe|dcB fed|bfe dcB|
|1edc gec|agf gec|=Bcd Ggf|ecc c2:|
|2cde def|efg fga|gag fed|c2c c2||
